static/assets/img/icons/theme/electric/shutdown.svg

<svg height="24" viewBox="0 0 24 24" width="24" xmlns="http://www.w3.org/2000/svg"><g fill="none" fill-rule="evenodd"><path d="m0 0h24v24h-24z" opacity="0"/><g fill="#000"><path d="m7.62302337 5.30262097c.46206465-.30251397 1.08187809-.17317259 1.38439206.28889206.30251397.46206466.17317258 1.08187809-.28889207 1.38439206-1.68383444 1.1024073-2.71852336 2.9743973-2.71852336 5.02409491 0 3.3137085 2.6862915 6 6 6s6-2.6862915 6-6c0-2.00450771-.9891725-3.84030998-2.6124296-4.95301403-.4555357-.31225891-.5716846-.93467946-.2594256-1.39021521.3122589-.45553575.9346794-.57168458 1.3902152-.25942568 2.1616581 1.48176515 3.48164 3.93151563 3.48164 6.60265492 0 4.418278-3.581722 8-8 8s-8-3.581722-8-8c0-2.73147668 1.38056879-5.22924284 3.62302337-6.69737903z" fill-rule="nonzero"/><rect height="10" opacity=".3" rx="1" width="2" x="11" y="3"/></g></g></svg>

<svg width="24px" height="24px" viewBox="0 0 24 24" version="1.1" xmlns="http://www.w3.org/2000/svg" xmlns:xlink="http://www.w3.org/1999/xlink">
    <title>Icon For Shutdown</title>
    <g stroke="none" stroke-width="1" fill="none" fill-rule="evenodd">
        <rect opacity="0" x="0" y="0" width="24" height="24"></rect>
        <path d="M7.62302337,5.30262097 C8.08508802,5.000107 8.70490146,5.12944838 9.00741543,5.59151303 C9.3099294,6.05357769 9.18058801,6.67339112 8.71852336,6.97590509 C7.03468892,8.07831239 6,9.95030239 6,12 C6,15.3137085 8.6862915,18 12,18 C15.3137085,18 18,15.3137085 18,12 C18,9.99549229 17.0108275,8.15969002 15.3875704,7.04698597 C14.9320347,6.73472706 14.8158858,6.11230651 15.1281448,5.65677076 C15.4404037,5.20123501 16.0628242,5.08508618 16.51836,5.39734508 C18.6800181,6.87911023 20,9.32886071 20,12 C20,16.418278 16.418278,20 12,20 C7.581722,20 4,16.418278 4,12 C4,9.26852332 5.38056879,6.77075716 7.62302337,5.30262097 Z" fill="#000000" fill-rule="nonzero"></path>
        <rect fill="#000000" opacity="0.3" x="11" y="3" width="2" height="10" rx="1"></rect>
    </g>
</svg>
